X:1
T:Adieu, ye city-prisoning towers - Tomkins
T:James Gibb editions
T:#
%%score { 1 | 2 } 3 4 5
L:1/8
Q:1/4=100
M:2/2
K:Bb
V:1 treble nm="Soprano 1" snm="S"
V:2 treble 
V:3 treble nm="Alto" snm="A"
V:4 treble-8 nm="Tenor" snm="T"
V:5 bass nm="Bass" snm="B"
V:1
"^Adieu, ye city-prisoning towers""^Thomas Tomkins\n(1572-1656)" z8 | z2!mf! (AB) c4- | c2 G2 C4 | %3
w: |A\- * dieu,|* a- díeu,|
"^-" z2 G2 A2 =B2 | c2 d2 =e2 f2 |[M:2/2] d6 d2 | c8 |!f! B3 B BB A2- | A (cBA) G4 | A3 A A2 c2 | %10
w: ye ci- ty-|prison- ing towers, ye|prison- ing|towers;|Bet- ter are the coun\-|* try * * bowers,|bet- ter are the|
 G2 A2 G4 | z8 | z8 | z4!mf! c2 cc | B2 G2 A2 B2 | (c2 A2) G4 | z2 G2 (c=Bcd | =edef g2) e2 | %18
w: coun- try bowers.|||Win- ter is|gone, the trees are|spring\- * ing,|are spring\- * * *|* * * * * ing;|
 f3 _e d2 c2 | B2 A2 c2 A2 | z8 | z4 z2 G2- | G2 (CD EFGA | Bc d2) D4 | z8 | B2 (EF GABc | %26
w: Birds on eve- ry|hedge sit sing- ing,||sit|* sing\- * * * * *|* * * ing,||sit sing\- * * * * *|
 de) f4 c2 | (de f4) c2- | c2 e2 d4 |!mp! c4 z2 BB | c4 z2 ed | c4 z2 ed | c4 z2 cB | %33
w: * * ing, sit|sing\- * * ing,|* sing- ing.|Hark, how they|chirp, how they|chirp, how they|chirp, how they|
 _A2 F2 z2 dc | B4 z2 d2- | d2 Bc d4 | z2 dc B4 | z2 dc B2 c2 | d4 z2!f! A2 | B3 c d2 G2 | %40
w: chirp it, how they|chirp, hark,|* how they chirp,|how they chirp,|how they chirp, they|chirp, come,|love, de- lay not,|
 z2 C2 G3 A | B2 E2 z2 G2 | c3 (ded) c2- | c2 =B2 z4 | z8 | z8 | z8 ||!p! (3e4 B4 c4 | %48
w: come, love, de-|lay not, come,|love, de\- * * lay|* not.||||Come, come, sweet|
 (3:2:2B8 z4 | (3f4 c4 d4 | (3:2:2c8 c4 x11/4 | (3:2:1=B6 (3:2:2(c2 d4) | (3:2:2e4 d8 || c8 | %54
w: love,|come, come, sweet|love, come,|come, sweet *|love, sweet.|love,|
 z2 _A2 A2 G2 | F2 C2 z4 | z2 f2 f2 e2 | _d3 B/c/ (d4 | c3 B/A/) G4 | z2 e2 e2 d2 | %60
w: O come and|stay not|O come and|stay, and * stay|* * * not,|O come and|
"^cresc." c3 _d c2 (B_A) | G6!ff! !fermata!!courtesy!=A2 || z8 |!p! (3e4 B4 d4 | (3:2:2c8 B4 | %65
w: stay, O come and *|stay not.||Come, come, sweet|love, come,|
 (3:2:2_A4 (G6 (3:2:1F2) | (3:2:1G12 x11/4 | (3G4 F4 G4 ||!mf! _A4 G4 | z2 c2 c2 B2 | %70
w: come, sweet *|love,|come, sweet love,|O come,|O come and|
 _A3 B (A2 G2) | F2 _d2 d2 c2 | BB z2 z4 | z2 e2 e2 d2 | (c3 B/A/) G4 | %75
w: stay not, stay *|not, O come and|stay not,|O come and|stay * * not,|
[Q:1/4=98] z2"^cresc."[Q:1/4=97] e2[Q:1/4=95] e2[Q:1/4=93] _d2 | %76
w: O come and|
[Q:1/4=89] c6!ff![Q:1/4=44] !fermata!c2 |] x8 | x8 |] %79
w: stay not.|||
V:2
 z4 z2!mf! (AB) | c6 A2 | G4 z2 G2 | A2 =B2 c2 d2 | =e4 c3 c |[M:2/2] F4 B4 | A8 |!f! d3 d d2 f2 | %8
w: A\- *|dieu, a-|dieu. ye|ci- ty- prison- ing|towers, ci- ty-|prison- ing|towers~;|Bet- ter are the|
 c2 d2 c4 | z8 | z8 |!mf! G2 GG A2 B2 | c2 (BA) G2 c2- | c2 z2 z4 | z8 | z4 z2 G2 | (c=Bcd =edef | %17
w: coun- try bowers.|||Win- ter is gone, the|trees are * spring- ing,|||are|spring\- * * * * * * *|
 g2) =e2 d2 c2 | c3 c A3 G | F3 F G2 F2 | c3 B AG G2- | G (F =E2) G3 D | z2 G2 (CDEF | %23
w: * ing, spring- ing;|Birds on eve- ry|hedge sit sing- ing,|birds on eve- ry hedge|* sit * sing- ing,|sit sing\- * * *|
 GABc d2) D2 | z8 | z2 B2 EFGA | (Bcde f3) f | z4 z2 A2 | G2 c4 =B2 | z4!mp! e4 | z2 cd e4 | %31
w: * * * * * ing,||sit sing\- * * *|* * * * * ing,|still|sit sing- ing.|Hark,|how they chirp,|
 z2 ed c4 | z2 ed c4 | z2 cB _A4 | G4 z2 AA | B4 z2 dc | B4 z2 dc | B6 AG | ^F2 G2- GG F2 | %39
w: how they chirp,|how they chirp,|how they chirp,|hark, how they|chirp, how they|chirp, how they|chirp, how they|chirp, how * they chirp,|
 z2!f! G2 B3 c | d2 G2 z2 E2 | G3 A B2 E2 | z2 G2 c3 d | e2 d2 d4- | d4 (c4- | c2 =BA) B_B (e2- | %46
w: come, love, de-|lay not, corne,|love, de- lay not,|come, love, de-|lay not, de\-|* lay|* * * not, de- lay|
 e2 dc d2) G2 || (3:2:2z8!p! e4 | (3:2:2B4 d4 x8/3 | (3:2:2c8 B4 | %50
w: * * * * not,|Come,|come, sweet|love, come,|
 (3:2:2_A4 (G6 (3:2:1F2) x11/4 z/12 | (3:2:1G12 | (3G4 F4 G4 ||!mf! _A4 G4 | z2 c2 c2 B2 | %55
w: come, sweet *|love,|come, sweet. love,|O come|O come and|
 _A3 B (A2 G2) | F2 _d2 d2 c2 | BB z2 z4 | z2 e2 e2 d2 | (c3 B/A/) G4 | z2"^cresc." e2 e2 _d2 | %61
w: stay, not, stay *|not, O come, and|stay not,|O come, and|stay * * not,|O come and|
 c6!ff! !fermata!c2 ||!p! (3e4 B4 c4 | (3:2:2B8 z4 | (3f4 c4 d4 | (3:2:2c8 c4 | %66
w: stay not.|Come, come, sweet|love,|come, come, sweet|love, come,|
 (3:2:1=B6 (3:2:2(c2 d4) x11/4 | (3:2:2e4 d8 || c8 | z2!mf! _A2 A2 G2 | F2 C2 z4 | z2 f2 f2 e2 | %72
w: come, sweet *|love, sweet|love,|O come, and|stay not,|O come and|
 _d3 (B/c/) d4 | (c3 B/_A/) G4 | z2 e2 e2 d2 |"^cresc." c3 _d c2 (B_A) | %76
w: stay, and * stay,|stay * * not,|O come and|stay, O come and *|
 G6!ff! !fermata!!courtesy!=A2 |] x8 | x8 |] %79
w: stay t.|||
V:3
!mf! F8 | F6 F2 | =E8 | z8 | z8 |[M:2/2] z8 | z8 |!f! F3 F F2 F2 | F6 =E2 | F6 =E2 | G2 (FE) D4 | %11
w: A-|dieu, a-|dieu,|||||Bet- ter are the|coun- try|bowers, the|coun- try * bowers.|
!mf! =E2 EE F2 D2 | C2 D2 (=EDEF | GFGA G2) GG | (F2 C2- CF) D2 | z4 z2 C2 | (=EDEF G4- | G4) G4 | %18
w: Win- ter is gone, the|trees are spring\- * * *|* * * * * ing, are|spring\- * * * ing,|are|spring\- * * * *|* ing;|
 A3 G F3 E | D2 C2 C3 C | G3 F E3 D | C3 C D3 D | E8 | D6 DD | (B,CDE FG_AF | GFG=A B3) E | F8- | %27
w: Birds on eve- ry|hedge sit sing- ing,|birds on eve- ry|hedge sit sing- ing,|sit|sing- ing, sit|sing\- * * * * * * *|* * * * * ing,|sing\-|
 F4 C4 | z8 | z2!mp! _A4 BB | _A4 z2 GG | _A2 E2 A2 E2 | E6 E2 | F4 z2 FE | D4 B2 AA | G4 z2 FF | %36
w: * ing.||Hark, how they|chirp, how they|chirp, they chirp, hark,|how they|chirp, how they|chirp, hark, how they|chirp, how they|
 G6 D2 | D8- | D8 | z4!f! G4- | G4 E4- | E4 E4 | C4 z2 C2 | G3 A B2 A2- | AG (G4 ^F2) | G8- | G8 || %47
w: chirp, they|chirp,~||come,|* love,|* come,|love, come,|love, de- lay not,|* de- lay *|not,||
!p! (3G4 E4 E4 | (3:2:2E8 F4 | (3:2:1F12 | (3F4 E4 C4 x11/4 | (3:2:2D8 D4 | (3:2:2C4 D8 || %53
w: Come, come, sweet|love, sweet|love,|come, come, sweet|love, come,|sweet love.|
 z2!mf! E2 E2 D2 | C3 C C4- | C4 C4 | _A,3 B, F3 F | z2 G2 G2 F2 | =EC z2 z4 | z4"^cresc." E4 | %60
w: O come and|stay not, stay|* not,|come, and stay not,|O come and|stay not,|O|
 E4 _AG F2- | F2 (=ED) E2!ff! !fermata!F2 ||!p! (3G4 E4 E4 | (3:2:2E8 F4 | (3:2:1F12 | (3F4 E4 C4 | %66
w: come, come, and stay|* and * stay not.|Corne, come, sweet|love, sweet|love,|come, come, sweet|
 (3:2:2D8 D4 x11/4 | (3:2:2C4 D8 || z2!mf! E2 E2 D2 | C3 C C4- | C4 C3 C | _A,3 B, F3 F | %72
w: love, come,|sweet love,|O come and|stay not, O|* come, and|stay not, stay not,|
 z2 G2 G2 F2 | =EC z2 z4 | z4"^cresc." E4 | E4 _AG F2- | F2 (=ED) E2!ff! !fermata!F2 |] x8 | x8 |] %79
w: O come and|stay not,|O|come, come and stay,|* and * stay not.|||
V:4
 z8 | z4 z2!mf! (AB) | c8 | c8 | c6 A2 |[M:2/2][K:treble-8] B2 c2 d2 e2 | f8 |!f! B3 B B2 d2 | %8
w: |A\- *|dieu,|a-|dieu. ye|ci- ty- prison- ing|towers;|Bet- ter are the|
 A2 B2 c4- | c4 z2 c2 | c2 c4 =B2 |!mf! c2 cc F2 G2 | A2 B2 (cBcd | =edef e2) c2 | F2 G2 z2 G2 | %15
w: coun- try bowers,|* the|coun- try bowers.|Win- ter is gone, the|trees are spring\- * * *|* * * * * ing,|spring- ing, are|
 (cBcd =edef | g6) c2 | z8 | c3 c F2 F2 | F3 A G2 c2 | e3 d c3 B | A2 G4 d2 | c8 | z2 G2 A4 | %24
w: spríng\- * * * * * * *|* ing;||Birds on eve- ry|hedge sit sing- ing,|birds on eve- ry|hedge sit sing-|ing,|sing- ing,|
 d2 (Bc decd | e6) B2 | B4 A4 | B2 (FG ABcd | ef g2 g4) | z2!mp! e4 ee | e8 | z2 cB _A4 | %32
w: sit sing\- * * * * *|* ing,|sing\- ing,|sit sing\- * * * * *|* * * ing.|Hark, how they|chirp,|how they chirp,|
 z2 cB _A4 | z2 _AG F4 | (GABc) d4- | d4 d4 | z2 BA G4 | z2 BA G4 | A2 B2 A4 | G6 G2 | G4 z4 | %41
w: how they chirp,|how they chirp,|how * * * they|* chirp,|how they chirp,|how they chirp,|how they chirp,|how they|chirp,|
 z4 z2!f! E2 | _AB c4 C2 | z8 | z2 G2 c3 d | (e2 dc) dd (c2- | c2 =BA) B4 ||!p! (3E4 G4 _A4 | %48
w: come,|love de- lay not,||come, love, de-|lay * * not, de- lay|* * * not.|Come, come, sweet|
 (3:2:2G8 B4 | (3:2:1F12 | (3:2:2z8 z8 x/12 | (3:2:1z8 x8/3 | x8 || x8 | z8 | z8 | %56
w: love, sweet|love,|||||||
!mf! F3 G (_AB c2) | F8 | z2 B2 B2 _A2 | GG c2 c2 B2 | (_A3 G/F/ EF G2) | _A4"^cresc." AEBF || %62
w: come and stay * *|not,|O come and|stay not, O come, and|stay * * * * *|not, come, O come and|
 c3 B G2!ff! !fermata!F2 |!p! (3E4 G4 _A4 | (3:2:2G8 B4 | (3:2:1F12 | (3:2:2z8 z8 x/12 | %67
w: stay not, stay not.|Come, come, sweet|love, sweet|love,||
 (3:2:1z8 x8/3 || x8 | x8 | z8 | z8 |!mf! F3 G (_AB c2) | F8 | z2 B2 B2 _A2 | GG c2 c2 B2 | %76
w: |||||come and stay * *|not,|O come and|stay not, O come, and|
 (_A3 G/F/ EF G2) |] _A4"^cresc." AEBF | c3 B"^." G2!ff! !fermata!F2 |] %79
w: stay * * * * *|not, come, O come and|stay not, stay not.|
V:5
 z8 | z8 | z8 | z8 | z8 |[M:2/2] z8 | z8 | z8 | z8 |!f! F,3 F, F,2 A,2 | =E,2 F,2 G,4 | z8 | z8 | %13
w: |||||||||Bet- ter are the|coun- try bowers.|||
 z4!mf! C,2 C,C, | D,2 =E,2 F,2 G,2 | (A,G,A,B, C=B,CD | C4) C,4 | C3 C, =B,2 C2 | %18
w: Win- ter is|gone, the trees are|spring\- * * * * * * *|* ing,|trees are spring- ing;|
 F,3 C, D,2 A,,2 | B,,2 F,2 =E,2 F,2 | C,8 | C,4 =B,,4 | C,6 C2 | G,4 ^F,4 | (G,4 =F,4) | E,8 | %26
w: Birds on eve- ry|hedge sit sing- ing,|sit|sing- ing,|sing- ing,|thus sit|sing\- *|ing,|
 z4 z2 F,2 | (B,,C,D,E, F,G,A,B, | C3) C, G,3 G,, | z2!mp! _A,4 G,G, | _A,4 z2 CB, | _A,4 z2 CB, | %32
w: sit|sing\- * * * * * * *|* ing, sing- ing.|Hark, how they|chirp, how they|chirp, how they|
 _A,4 z2 A,G, | F,8 | z2 G,4 ^F,F, | G,4 z2 B,A, | G,4 z2 B,A, | G,6 F,E, | D,2 C,B,, D,4 | z8 | %40
w: chirp, how they|chirp,|hark, how they|chirp, how they|chirp, how they|chirp, how they|chirp, how they chirp,||
 z8 | z8 | z8 | z2 G,,2 G,3 A, | B,4 A,2 A,2 | G,8 | G,8 || (3:2:2z8!p! E,4 | (3:2:2E,4 B,,4 x8/3 | %49
w: |||come, love, de-|lay not, de-|lay|not.|Come,|come, sweet|
 (3:2:2A,,8 B,,4 | (3F,4 C,4 _A,4 x11/4 | (3:2:1G,6 (3:2:2A,2 =B,4 | (3:2:2(C8 =B,4) || %53
w: love, sweet|love, come, sweet|love, come, sweet|love, *|
 z2!mf! C2 C2 B,2 | _A,3 F, =E,3 E, | z2 F,2 F,2 E,2 | _D,3 B,, !courtesy!=A,,3 A,, | B,,8 | C,8 | %59
w: O come and|stay not, stay not,|O come and|stay not, stay not,|stay|not,|
 z2 C,2 C,2 B,,2 | _A,,6 B,,B,, | C,6!ff! !fermata!F,,2 || z8 |!p! (3E,4 E,4 B,,4 | %64
w: O come and|stay not, and|stay not.||Come, come, sweet|
 (3:2:2A,,8 B,,4 | (3F,4 C,4 _A,4 | (3:2:1G,6 (3:2:2A,2 =B,4 x11/4 | (3:2:2(C8 =B,4) || %68
w: love, sweet|love, come, sweet|love, come, sweet|love, *|
 z2!mf! C2 C2 B,2 | _A,3 F, =E,3 E, | z2 F,2 F,2 E,2 | _D,3 B,, !courtesy!=A,,3 A,, | B,,8 | C,8 | %74
w: O come and|stay not, stay not,|O come and|stay not, stay not,|stay|not,|
 z2 C,2 C,2 B,,2 | _A,,6 B,,B,, | C,6!ff! !fermata!F,,2 |] x8 | x8 |] %79
w: O come and|stay not, and|stay not.|||

